App/assets/icons/truck-fast.svg

<svg width="32" height="32" viewBox="0 0 32 32" fill="none" xmlns="http://www.w3.org/2000/svg">
<rect x="0.5" y="0.5" width="31" height="31" stroke="black"/>
<path d="M22.4 5.6H4.8V8H3.2V4H24V8.8H28.33L28.565 9.035L31.765 12.235L32 12.47V24.8H28.635C28.115 26.645 26.415 28 24.4 28C22.385 28 20.69 26.645 20.165 24.8H15.035C14.515 26.645 12.815 28 10.8 28C8.785 28 7.09 26.645 6.565 24.8H3.2V16.8H0V15.2H8V16.8H4.8V23.2H6.42C6.62 20.955 8.505 19.2 10.8 19.2C13.095 19.2 14.98 20.955 15.18 23.2H20.015C20.155 21.66 21.085 20.35 22.395 19.68L22.4 5.6ZM3.2 12H0V10.4H11.2V12H3.2ZM24 19.22C24.13 19.21 24.265 19.2 24.4 19.2C26.695 19.2 28.58 20.955 28.78 23.2H30.4V16.8H24V19.22ZM30.4 13.13L27.67 10.4H24V15.2H30.4V13.13ZM13.6 23.6C13.6 22.8574 13.305 22.1452 12.7799 21.6201C12.2548 21.095 11.5426 20.8 10.8 20.8C10.0574 20.8 9.3452 21.095 8.8201 21.6201C8.295 22.1452 8 22.8574 8 23.6C8 24.3426 8.295 25.0548 8.8201 25.5799C9.3452 26.105 10.0574 26.4 10.8 26.4C11.5426 26.4 12.2548 26.105 12.7799 25.5799C13.305 25.0548 13.6 24.3426 13.6 23.6ZM27.2 23.6C27.2 22.8574 26.905 22.1452 26.3799 21.6201C25.8548 21.095 25.1426 20.8 24.4 20.8C23.6574 20.8 22.9452 21.095 22.4201 21.6201C21.895 22.1452 21.6 22.8574 21.6 23.6C21.6 24.3426 21.895 25.0548 22.4201 25.5799C22.9452 26.105 23.6574 26.4 24.4 26.4C25.1426 26.4 25.8548 26.105 26.3799 25.5799C26.905 25.0548 27.2 24.3426 27.2 23.6Z" fill="white"/>
</svg>

<?xml version="1.0" encoding="UTF-8"?>
<svg id="Livello_1" xmlns="http://www.w3.org/2000/svg" version="1.1" viewBox="0 0 32 32">
  <!-- Generator: Adobe Illustrator 29.5.1, SVG Export Plug-In . SVG Version: 2.1.0 Build 141)  -->
  <defs>
    <style>
      .st0 {
        fill: #fff;
      }
    </style>
  </defs>
  <path class="st0" d="M22.4,5.6H4.8v2.4h-1.6V4h20.8v4.8h4.3l.2.2,3.2,3.2.2.2v12.3h-3.4c-.5,1.8-2.2,3.2-4.2,3.2s-3.7-1.4-4.2-3.2h-5.1c-.5,1.8-2.2,3.2-4.2,3.2s-3.7-1.4-4.2-3.2h-3.4v-8H0v-1.6h8v1.6h-3.2v6.4h1.6c.2-2.2,2.1-4,4.4-4s4.2,1.8,4.4,4h4.8c.1-1.5,1.1-2.9,2.4-3.5V5.6ZM3.2,12H0v-1.6h11.2v1.6H3.2ZM24,19.2c.1,0,.3,0,.4,0,2.3,0,4.2,1.8,4.4,4h1.6v-6.4h-6.4v2.4ZM30.4,13.1l-2.7-2.7h-3.7v4.8h6.4v-2.1ZM13.6,23.6c0-.7-.3-1.5-.8-2-.5-.5-1.2-.8-2-.8s-1.5.3-2,.8-.8,1.2-.8,2,.3,1.5.8,2c.5.5,1.2.8,2,.8s1.5-.3,2-.8c.5-.5.8-1.2.8-2ZM27.2,23.6c0-.7-.3-1.5-.8-2s-1.2-.8-2-.8-1.5.3-2,.8c-.5.5-.8,1.2-.8,2s.3,1.5.8,2c.5.5,1.2.8,2,.8s1.5-.3,2-.8c.5-.5.8-1.2.8-2Z"/>
</svg>
